src/assets/pawn-b.svg

<svg xmlns="http://www.w3.org/2000/svg" width="128" height="128" viewBox="0 0 45 45"><path stroke="#000" stroke-linecap="round" stroke-width="1.5" d="M22.5 9c-2.21 0-4 1.79-4 4 0 .89.29 1.71.78 2.38C17.33 16.5 16 18.59 16 21c0 2.03.94 3.84 2.41 5.03-3 1.06-7.41 5.55-7.41 13.47h23c0-7.92-4.41-12.41-7.41-13.47 1.47-1.19 2.41-3 2.41-5.03 0-2.41-1.33-4.5-3.28-5.62.49-.67.78-1.49.78-2.38 0-2.21-1.79-4-4-4Z"/></svg>

<?xml version="1.0" encoding="UTF-8" standalone="no"?>
<!--
	Gyalog (fekete)
	Eredeti: http://en.wikipedia.org/wiki/File:Chess_pdt45.svg
	Felhasználási feltételek: Nevezd meg! - Így add tovább! (Creative Commons)
	Uray M. János
	2013-2018
-->
<!DOCTYPE svg PUBLIC "-//W3C//DTD SVG 1.1//EN" "http://www.w3.org/Graphics/SVG/1.1/DTD/svg11.dtd">
<svg xmlns="http://www.w3.org/2000/svg" width="128" height="128" viewBox="0 0 45 45">
	<g fill="#000" stroke="#000" stroke-width="1.5" stroke-linecap="round" stroke-linejoin="miter">
		<path d="M 22.5,9
			C 20.29,9 18.5,10.79 18.5,13 C 18.5,13.89 18.79,14.71 19.28,15.38
			C 17.33,16.5 16,18.59 16,21 C 16,23.03 16.94,24.84 18.41,26.03
			C 15.41,27.09 11,31.58 11,39.5
			L 34,39.5
			C 34,31.58 29.59,27.09 26.59,26.03
			C 28.06,24.84 29,23.03 29,21 C 29,18.59 27.67,16.5 25.72,15.38
			C 26.21,14.71 26.5,13.89 26.5,13 C 26.5,10.79 24.71,9 22.5,9
		Z"/>
	</g>
</svg>
